assets/images/logo.svg

<?xml version="1.0" encoding="UTF-8"?>
<svg width="263px" height="96px" viewBox="0 0 263 96" version="1.1" xmlns="http://www.w3.org/2000/svg" xmlns:xlink="http://www.w3.org/1999/xlink">
    <!-- Generator: Sketch 46.2 (44496) - http://www.bohemiancoding.com/sketch -->
    <title>Group 3</title>
    <desc>Created with Sketch.</desc>
    <defs></defs>
    <g id="Styles-+-Tiles" stroke="none" stroke-width="1" fill="none" fill-rule="evenodd">
        <g id="title_480" transform="translate(-119.000000, -192.000000)" fill="#5789FF">
            <g id="Group-3" transform="translate(119.000000, 192.000000)">
                <path d="M145.585155,18.6980759 C147.501674,16.9029709 153.333432,11.4393115 149.981213,4.98215626 C148.806754,2.7192566 146.86884,1.02747512 144.668558,0.341679134 C142.748661,-0.257824639 140.71616,-0.0636671672 138.9449,0.886682565 C132.148125,4.53139301 126.441357,11.7481468 121.40796,18.1156035 L119.877673,20.0446886 C112.809523,28.9112131 106.58365,37.1532546 100.845353,45.2442847 C99.9918151,46.4489694 99.1382772,47.6604666 98.2813611,48.8765055 C92.3099736,57.3569859 86.133647,66.125864 78.9393806,73.5208793 C77.0915498,75.4227142 75.3450625,76.4037204 74.8957727,76.2368131 C74.8282104,76.1232707 74.7696563,75.8609878 74.8800082,75.2501298 C75.3428104,72.69202 76.7255869,70.224744 78.0644479,67.8380832 C78.3898733,67.259017 78.7107946,66.6844926 79.0170773,66.1156452 C80.1363606,64.033278 81.3277104,61.938421 82.4796488,59.9128249 C84.2936984,56.7200132 86.1708063,53.4182007 87.8339666,50.0505337 C88.7336722,48.2304493 89.6806714,46.4296671 90.6287967,44.6266141 C94.059839,38.1013335 97.6079895,31.3546452 98.8545152,23.6746385 C99.474963,19.8459894 98.5448544,16.0763823 96.3659679,13.5886688 C93.4405173,10.2471165 89.2730451,9.82928052 83.9795334,12.3442443 C81.287173,13.6250023 78.6511145,15.3451694 76.1422985,17.4581931 C69.1045516,23.3941888 62.7638231,30.3407117 56.632538,37.057879 C54.4468954,39.4524878 52.1880601,41.9288472 49.9404853,44.3086955 C40.3308641,54.4900408 30.86425,64.1547683 20.37294,74.830023 C19.1050195,76.1198644 17.8179564,76.3935016 17.2459283,75.9972387 C16.7482188,75.6509344 16.5860691,74.5416253 17.35065,72.8430313 C21.8885892,62.7706867 28.1471167,52.7676029 36.4831872,42.2637972 C39.2082028,38.8280047 42.0480744,35.8827153 45.0523478,32.7637061 C45.8766087,31.908732 46.711004,31.0435391 47.5521555,30.1579085 C48.0070754,29.6787596 48.4732558,29.1996108 48.9428143,28.7170557 C52.2657568,25.3051071 55.7035554,21.7762099 56.7046046,16.7905639 C57.6121924,12.2715771 54.7959676,7.45624475 50.4258083,6.05513176 C44.8158795,4.25889129 40.5110305,9.63398762 38.6755861,11.9298146 C27.7293561,25.6309737 13.9004649,44.0418709 4.04311511,64.9620546 C2.48129832,68.2786276 0.947632519,71.8756502 0.295655646,75.6997576 C-0.736922578,81.7424832 0.83052441,89.621189 6.65890488,93.5997141 C6.91001169,93.7700276 7.16787473,93.9346641 7.42798986,94.0913526 C9.54156601,95.3641627 11.765494,96 14.044598,96 C16.640119,95.9988646 19.3077066,95.1756823 21.9640338,93.5315886 C29.9926955,88.5618386 34.7930019,83.0879604 40.3511329,76.7488892 C41.7789509,75.1206915 43.2596929,73.4323163 44.8620471,71.6758156 C48.4338444,67.7642806 51.558604,64.188831 54.579768,60.7326009 C60.6175918,53.8246824 66.322108,47.2982664 74.0737639,39.889626 C74.0974107,39.8669175 74.1311919,39.8351256 74.1706033,39.7976567 C74.0230921,40.6242452 73.5310129,42.2842348 72.0266241,45.478182 L71.9173982,45.708673 C70.4524209,48.9094328 68.7521012,52.079536 67.1080835,55.1451803 C62.7852179,63.1998769 58.3159671,71.529346 57.5896716,81.3235118 C57.2034401,86.5055861 59.0490188,90.992781 62.6534713,93.6360476 C66.2511675,96.2736371 71.0379614,96.6596812 75.7943523,94.6976689 C88.0366537,89.6473038 96.0923403,78.6552658 103.882282,68.0254281 C105.229025,66.1871769 106.570138,64.3580092 107.925889,62.5685812 C118.570341,48.5165761 131.138068,32.377662 145.585155,18.6980759" id="Fill-1"></path>
                <path d="M244.646767,59.4756583 C241.738006,58.9501201 238.589673,60.2849645 236.216557,63.0454589 C231.422865,68.6186611 221.766546,78.0068394 210.93836,78.2588253 C206.586518,78.3666571 202.544312,76.2531535 200.635649,72.8910711 C199.225341,70.4098043 199.085214,67.1283119 200.298893,64.9103818 C201.569075,62.5846198 203.919589,62.5346766 206.40797,62.4824633 C206.933445,62.4722477 207.455531,62.460897 207.969706,62.4279799 C223.578024,61.4608988 239.271096,53.7492215 249.947854,41.7991863 C254.877154,36.3088444 267.96884,21.7243078 260.999791,9.99334146 C257.528263,4.15566756 250.68239,1.81514966 242.210369,3.56997055 C222.492041,7.65963398 208.581065,24.1590366 197.088407,39.3042987 L195.650977,41.2021386 C183.54922,57.1896239 169.833743,75.311044 149.424952,78.1612091 C148.805682,78.2474746 148.183022,78.317849 147.555841,78.3666571 C143.844741,78.6595056 139.927971,77.320121 137.580847,74.9512263 C135.829262,73.1816494 135.012232,70.9251269 135.221292,68.4245638 C135.560309,64.3383056 138.978725,62.2577191 145.67091,62.065892 C151.004769,61.9115223 155.400682,61.1112967 159.920902,59.4711181 C166.730613,57.0000669 173.46574,52.9149438 179.939824,47.3315259 C187.236589,41.0364181 195.065609,33.075025 197.808252,21.7617651 C199.116856,16.3667692 198.251234,11.4984466 195.370724,8.05350387 C192.446142,4.55634788 187.745113,2.83671421 182.099359,3.20447745 C179.785007,3.35771214 177.258204,3.89233092 174.148293,4.8889239 C168.790703,6.60288221 163.862533,9.53136726 159.275641,12.3838025 C149.240753,18.6210217 140.390163,26.8854789 133.678767,36.2827377 C127.376451,45.1067853 117.508812,62.2202618 122.243742,77.6810738 C124.353554,84.5720942 129.643341,90.0771921 136.393159,92.4074944 C139.482729,93.4744618 142.762149,94 146.142143,94 C153.635537,93.9988649 161.620504,91.419982 169.098078,86.4438275 C172.074642,84.4631273 174.941591,82.2043346 177.715876,80.0193215 C178.763437,79.1941244 179.813258,78.3666571 180.840478,77.574377 C180.899241,77.5357846 180.954614,77.4903817 181.08683,77.3848201 C181.193055,77.3030949 181.29702,77.2179645 181.386294,77.1362393 C181.667678,76.9012795 181.942281,76.6447533 182.1197,76.4359001 C183.170651,75.6527006 184.195611,74.8399892 185.173108,74.012522 C187.633238,82.9512118 192.115036,88.7094307 198.854683,91.6015934 C213.502454,97.8796752 230.490569,90.0828675 241.506344,80.6924191 C245.485268,77.2974195 248.079874,74.1532708 249.670991,70.7968637 C250.732112,68.5596374 250.868849,66.448404 250.092501,64.3428459 C249.113874,61.6981288 247.128367,59.9240117 244.646767,59.4756583 L244.646767,59.4756583 Z M224.372452,30.5131681 L224.372452,30.5120331 C229.902941,25.9808267 236.166835,22.8480288 243.872679,19.5381596 L244.245597,19.3690339 C245.32706,18.8661971 245.7497,18.7856071 246.128269,19.2839035 C246.231104,19.465515 246.14296,20.2657406 245.846885,20.8378167 C238.484578,35.0080522 221.558616,45.6028117 211.633344,45.6028117 C211.572321,45.6028117 211.509037,45.6028117 211.446884,45.6016766 C214.64155,39.040962 219.534687,34.4734334 224.372452,30.5131681 L224.372452,30.5131681 Z M158.308314,32.2906905 C164.720245,26.5052299 172.608028,22.9206734 179.568036,19.7572285 L179.86298,19.6198848 C180.805446,19.1726665 181.419066,18.9365716 181.958102,19.4462188 C182.237226,19.7095554 182.094839,20.1249917 181.675589,20.9388381 C175.667087,32.6232665 159.526513,45.7469658 147.201004,45.8582028 C149.805781,40.5823894 153.541742,36.5914772 158.308314,32.2906905 L158.308314,32.2906905 Z" id="Fill-2"></path>
            </g>
        </g>
    </g>
</svg>

<svg width="263" height="96" xmlns="http://www.w3.org/2000/svg"><path d="M145.585 18.698c1.917-1.795 7.748-7.259 4.396-13.716-1.174-2.263-3.112-3.955-5.312-4.64a7.37 7.37 0 0 0-5.724.545c-6.797 3.644-12.504 10.861-17.537 17.229l-1.53 1.929c-7.068 8.866-13.294 17.108-19.033 25.2-.853 1.204-1.707 2.415-2.564 3.632-5.971 8.48-12.147 17.249-19.342 24.644-1.847 1.902-3.594 2.883-4.043 2.716-.068-.114-.126-.376-.016-.987.463-2.558 1.846-5.025 3.184-7.412.326-.579.647-1.154.953-1.722 1.12-2.083 2.31-4.178 3.463-6.203 1.814-3.193 3.69-6.495 5.354-9.862.9-1.82 1.847-3.621 2.795-5.424 3.43-6.526 6.979-13.272 8.226-20.952.62-3.829-.31-7.599-2.489-10.086-2.925-3.342-7.093-3.76-12.386-1.245-2.693 1.281-5.329 3.001-7.838 5.114-7.037 5.936-13.378 12.883-19.51 19.6-2.185 2.394-4.444 4.87-6.692 7.25C40.33 54.49 30.864 64.156 20.373 74.83c-1.268 1.29-2.555 1.564-3.127 1.167-.498-.346-.66-1.455.105-3.154 4.538-10.072 10.796-20.075 19.132-30.58 2.725-3.435 5.565-6.38 8.57-9.5.824-.854 1.658-1.72 2.5-2.605.454-.48.92-.958 1.39-1.44 3.323-3.413 6.76-6.942 7.762-11.927.907-4.52-1.909-9.335-6.28-10.736-5.61-1.796-9.914 3.579-11.75 5.875C27.73 25.63 13.9 44.042 4.044 64.962 2.481 68.28.948 71.876.296 75.7-.737 81.742.83 89.62 6.659 93.6c.251.17.509.335.769.491C9.542 95.364 11.765 96 14.045 96c2.595-.001 5.263-.824 7.919-2.468 8.029-4.97 12.829-10.444 18.387-16.783a339.868 339.868 0 0 1 4.511-5.073c3.572-3.912 6.697-7.487 9.718-10.943 6.038-6.908 11.742-13.435 19.494-20.843l.097-.092c-.148.826-.64 2.486-2.144 5.68l-.11.23c-1.465 3.201-3.165 6.372-4.809 9.437-4.323 8.055-8.792 16.384-9.518 26.179-.387 5.182 1.459 9.669 5.063 12.312 3.598 2.638 8.385 3.024 13.141 1.062 12.243-5.05 20.298-16.043 28.088-26.673a423.519 423.519 0 0 1 4.044-5.456c10.644-14.052 23.212-30.191 37.66-43.87m99.061 40.777c-2.909-.526-6.057.809-8.43 3.57-4.794 5.573-14.45 14.96-25.279 15.213-4.351.108-8.394-2.006-10.302-5.368-1.41-2.481-1.55-5.763-.337-7.98 1.27-2.326 3.62-2.376 6.109-2.429a35.27 35.27 0 0 0 1.562-.054c15.608-.967 31.301-8.679 41.978-20.629 4.93-5.49 18.02-20.075 11.052-31.806-3.472-5.837-10.318-8.178-18.79-6.423-19.718 4.09-33.629 20.589-45.122 35.734l-1.437 1.898c-12.102 15.988-25.817 34.109-46.226 36.96-.62.085-1.242.156-1.87.205-3.71.293-7.627-1.047-9.974-3.416-1.752-1.77-2.569-4.026-2.36-6.526.34-4.087 3.758-6.167 10.45-6.36 5.334-.153 9.73-.954 14.25-2.594 6.81-2.47 13.545-6.556 20.019-12.14 7.297-6.295 15.126-14.256 17.868-25.57 1.309-5.394.443-10.263-2.437-13.707-2.925-3.498-7.626-5.217-13.272-4.85-2.314.154-4.84.688-7.95 1.685-5.358 1.714-10.286 4.642-14.873 7.495-10.035 6.237-18.886 14.501-25.597 23.899-6.303 8.824-16.17 25.937-11.435 41.398 2.11 6.891 7.4 12.396 14.15 14.726 3.089 1.067 6.368 1.593 9.748 1.593 7.494-.001 15.479-2.58 22.956-7.556 2.977-1.98 5.844-4.24 8.618-6.425a407.486 407.486 0 0 1 3.124-2.445c.06-.038.115-.084.247-.19.106-.08.21-.166.3-.248a6.61 6.61 0 0 0 .733-.7 63.064 63.064 0 0 0 3.053-2.423c2.46 8.938 6.942 14.696 13.682 17.589 14.647 6.278 31.636-1.52 42.651-10.91 3.98-3.395 6.574-6.539 8.165-9.895 1.061-2.237 1.198-4.349.422-6.454-.98-2.645-2.965-4.419-5.446-4.867zm-20.275-28.963v-.001c5.53-4.531 11.795-7.664 19.5-10.974l.374-.169c1.081-.503 1.504-.583 1.882-.085.103.182.015.982-.281 1.554-7.362 14.17-24.288 24.765-34.214 24.765l-.186-.001c3.195-6.561 8.088-11.129 12.925-15.089zm-66.064 1.778c6.412-5.786 14.3-9.37 21.26-12.534l.295-.137c.942-.447 1.556-.683 2.095-.174.28.264.137.679-.282 1.493-6.009 11.684-22.15 24.808-34.475 24.92 2.605-5.277 6.34-9.268 11.107-13.568z" fill="#5789FF" fill-rule="evenodd"/></svg>
